src/assets/images/icons/settings-line.svg

<svg width="24" height="24" viewBox="0 0 24 24" fill="none" xmlns="http://www.w3.org/2000/svg">
<g clip-path="url(#clip0_58_16608)">
<path d="M12 1L21.5 6.5V17.5L12 23L2.5 17.5V6.5L12 1ZM12 3.311L4.5 7.653V16.347L12 20.689L19.5 16.347V7.653L12 3.311ZM12 16C10.9391 16 9.92172 15.5786 9.17157 14.8284C8.42143 14.0783 8 13.0609 8 12C8 10.9391 8.42143 9.92172 9.17157 9.17157C9.92172 8.42143 10.9391 8 12 8C13.0609 8 14.0783 8.42143 14.8284 9.17157C15.5786 9.92172 16 10.9391 16 12C16 13.0609 15.5786 14.0783 14.8284 14.8284C14.0783 15.5786 13.0609 16 12 16ZM12 14C12.5304 14 13.0391 13.7893 13.4142 13.4142C13.7893 13.0391 14 12.5304 14 12C14 11.4696 13.7893 10.9609 13.4142 10.5858C13.0391 10.2107 12.5304 10 12 10C11.4696 10 10.9609 10.2107 10.5858 10.5858C10.2107 10.9609 10 11.4696 10 12C10 12.5304 10.2107 13.0391 10.5858 13.4142C10.9609 13.7893 11.4696 14 12 14Z" fill="#181D27"/>
</g>
<defs>
<clipPath id="clip0_58_16608">
<rect width="24" height="24" fill="white"/>
</clipPath>
</defs>
</svg>

<svg xmlns="http://www.w3.org/2000/svg" width="24" height="24" fill="none" viewBox="0 0 24 24"><g clip-path="url(#a)"><path fill="#181d27" d="m12 1 9.5 5.5v11L12 23l-9.5-5.5v-11zm0 2.311L4.5 7.653v8.694l7.5 4.342 7.5-4.342V7.653zM12 16a4 4 0 1 1 0-8 4 4 0 0 1 0 8m0-2a2 2 0 1 0 0-4 2 2 0 0 0 0 4"/></g><defs><clipPath id="a"><path fill="#fff" d="M0 0h24v24H0z"/></clipPath></defs></svg>
